X:1
T:Title
%%score { ( 1 3 5 ) | ( 2 4 ) }
L:1/8
Q:1/4=100
M:4/4
K:Ab
V:1 treble nm="Grand Piano"
V:3 treble 
V:5 treble 
V:2 bass 
V:4 bass 
V:1
 [CE][CE][_C=D][=CE] [Ec]2 [CA]2 | [DF][DF][FA][DF] [CE]4 | [CE][CE][_C=D][=CE] [Ec]2 [CA]2 | %3
w: Thoro~Harris * * * * *|||
 z4 B4 | EE=DE c2 A2 | F[FA][EG][DF] [CE]4 | [DF][FA][EG][DF] [CE][EA][Ec][Fd] | %7
w: ||||
 [Ec]2 [DB]2 [CA]4 | ecce [Ae]2 [Gd]2 | [Gd][GB][GB][Bd] [Bd]2 [Ac]2 | %10
w: |||
 [GB][FA][EG][DF] [CE]2 [CA]2 | z4 B4[K:bass] | ecce e2 d2 | [Gd][AB][GB][Gd] d2 c2 | %14
w: ||||
 B[Ac][Ad][A=d] [Af][Ge][FA][F_d] | [Ac]2 .[EB]2 [A,CA]4 |] %16
w: ||
V:2
 [A,,A,][A,,A,][A,,A,][A,,A,] [A,,A,]2 [A,,A,]2 | [D,A,][D,A,][D,D][D,A,] [A,,A,]4 | %2
 [A,,A,][A,,G,][A,,F,][A,,E,] [A,,A,]2 [A,,A,]2 | z4 E2 z2 | [A,C][A,C][A,_C][A,=C] [A,E]2 [A,C]2 | %5
 [D,A,D][D,D][D,D][D,A,] [A,,A,]4 | [D,A,][D,A,][D,A,][D,A,] [A,,A,][C,A,][F,A,][D,A,] | %7
 [E,A,]2 [E,G,]2 [A,,A,]4 | [A,CA][A,EA][A,EA][A,CA][K:bass] [E,C]2 [E,B,]2 | %9
 [E,B,][E,E][E,E][E,E] [A,E]2 [A,E]2 | [D,D][D,D][D,A,][D,A,] [A,,A,]2 [A,,A,]2 | z4 E4 | %12
 [A,CE][A,E][F,A,E][K:treble][F,CF] [B,CF]2 [B,F]2 | %13
 [E,B,][F,B,][G,E][E,B,][K:treble] [A,F]2 [A,CE]2 | %14
 [G,DE][_G,E][F,D][=E,_C] [_E,=C][E,D][F,C][D,B,] | [E,E]2 z D A,,4 |] %16
V:3
 x8 | x8 | x8 | [=DA][DA][DG][DA] z2 _D2 | x8 | x8 | x8 | x8 | x8 | x8 | x8 | %11
 [=DA][CDG][B,DA][Dc] z[K:bass] E, z G, | x8 | x8 | x8 | x8 |] %16
V:4
 x8 | x8 | x8 | [B,,F,][B,,F,][B,,B,][B,,A,] [E,G,]4 | x8 | x8 | x8 | x8 | x4[K:bass] x4 | x8 | %10
 x8 | [B,,F,]B,,B,,[B,,F,] .[E,G,]2 .F,2 | x3[K:treble] x5 | x4[K:treble] x4 | x8 | %15
 z2 [E,G,]2 z4 |] %16
V:5
 x8 | x8 | x8 | x8 | x8 | x8 | x8 | x8 | x8 | x8 | x8 | z4 z2[K:bass] _D2 | x8 | x8 | x8 | x8 |] %16

